X:1
T:James Gibb editions
T:Benedicam Dominum - Lasso
T:#
%%score [ 1 2 3 4 ]
L:1/8
Q:1/4=180
M:none
K:C
V:1 treble nm="Alto" snm="A"
V:2 treble-8 nm="Tenor I" snm="T I"
V:3 treble-8 nm="Tenor II" snm="T II"
V:4 bass nm="Bass" snm="B"
V:1
"^Benedicam Dominum""^Orlando de Lasso\n(1530-94)" z8 c8- | c4 c4 G8 | A8 ^F8- | F4 ^F4 F8 | %4
w: Be\-|* ne- di-|cam Do\-|* mi- num|
 (G6 =F2 E8) | F4 G4 F8 | _B4 A8 G4 | ^F4 (G6 FE F4) | G16 | z8 G8- |[M:4/2] G4 G4 !courtesy!=F8 | %11
w: qui * *|tri- bu- it|mi- hi in-|tel- le\- * * *|ctum,|pro\-|* vi- de-|
 E8 G6 G2 | G4 c8 c4 | c4 A4 G8 | G8 A8 | G8 E8- | E4 E4 E8 | z16 | z4 A4 c8 | G4 A4 (E2 F2 G2 A2 | %20
w: bam Do- mi-|num in con-|spe- ctu me-|o sem-|per: quo\-|* ni- am||a dex-|tris est mi- * * *|
 B2 c2 d8) G4 | z4 A4 c8 | G4 G4 _B8 | A8 z4 c4- | c4 =B4 A4 A4 | G8 z4 A4- | A4 G4 F4 F4 | %27
w: * * * hi,|a dex-|tris est mi-|hi, ne|* com- mo- ve-|ar, ne|* com- mo- ve-|
 E8 z4 c4- | c4 B4 A4 A4 | G8 G6 G2 | C4 E4 G4 G4- | G4 F4 E4 E4 | (D6 E2 F4) D4- | %33
w: ar, ne|* com- mo- ve-|ar, ne com|mo- ve- ar, ne|* com- mo- ve-|ar, * * ne|
 D4 (C6 B,A, B,4) | E4 E4 D8 | G8 ^F4 G4- | G4 ^F4 G8 | z8 z4 c4- | c4 B4 A4 A4 | %39
w: * com\- * * *|mo- ve- ar,|ne com- mo\-|* ve- ar,|ne|* com- mo- ve-|
 G8[Q:1/4=176] (G6[Q:1/4=171] F2 |[Q:1/4=168] E4)[Q:1/4=164] E4[Q:1/4=160] F4[Q:1/4=156] F4 | %41
w: ar, ne *|* com- mo- ve-|
[Q:1/4=154] E16 |] %42
w: ar.|
V:2
 z8 e8- | e4 e4 e8 | c8 d8- | d4 d4 A8 | B8 c8- | c8 c4 d4 | f4 f4 e4 e4 | d4 B4 z4 d4- | %8
w: Be\-|* ne- di-|cam Do\-|* mi- num|qui tri\-|* bu- it|mi- hi in- tel-|le- ctum, in\-|
 d4 d4 _B8 | A8 z8 |[M:4/2][K:treble-8] d12 d4 | c8 B4 e4- | e2 e2 e4 e4 e4 | e4 f4 e8 | d8 f8 | %15
w: * tel- le-|ctum,|pro- vi-|de- bam Do\-|* mi- num in con-|spe- ctu me-|o sem-|
 e8 c8- | c4 c4 c4 c4 | e8 d4 d4 | f8 e8- | e8 z4 e4 | g8 d4 d4 | f8 e4 c4 | e8 d8- | d4 d4 e8 | %24
w: per: quo\-|* ni- am a|dex- tris est|mi- hi,|* a|dex- tris est|mi- hi, a|dex- tris|* est mi-|
 d8 z4 d4- | d4 c4 B4 A4 | (B6 AG A4) d4 | c4 (B2 c2 d2 c2 c2 BA | e6 B2 d2 c2 c2 BA | %29
w: hi, ne|* com- mo- ve-|ar, * * * ne|com- mo\- * * * * * *||
 c2 B2 c2 d2 e4) d4 | e4 A4 d8 | d4 d4 B4 c4- | c4 B4 A4 A4 | G8 z4 G4- | G4 c4 B4 A4 | %35
w: * * * * * ve-|ar, ne com-|mo- ve- ar, ne|* com- mo- ve-|ar, ne|* com- mo- ve-|
 (B4 A2 G2 d8) | (d6 c2 B4) c4 | G4 G4 (c2 d2 e2 A2 | d6 e2 f4) d4- | d4 (c6 BA B4) | %40
w: ar, * * *|ne * * com-|mo- ve- ar, * * *|* * * ne|* com\- * * *|
 (c6 B2 A4) A4 | G16 |] %42
w: mo\- * * ve-|ar.|
V:3
 G12 G4 | G12 c4- | c4 A8 A4 | A8 z4 d4- | d4 (e6 d2 c2 B2 | A4 G4 A8 | d8 c8 | A4 G4 A8 | B8 d8 | %9
w: Be- ne-|di- cam|* Do- mi-|num qui|* tri\- * * *|* bu- it|mi- hi|in- tel- le-|ctum, pro-|
 d4 c8 B4 |[M:4/2][K:treble-8] B4 B4 A8- | A8 z4 c4- | c4 G4 A8 | G4 d4 B4 c4- | c2 BA B4) c4 c4- | %15
w: vi- de- bam|Do- mi- num|* in|* con- spe-|ctu me- o sem\-|* * * * per: quo\-|
 c4 c4 G8 | G8 A8 | G4 G4 _B8 | A8 z4 A4 | c8 G4 c4 | (d2 c2 B2 A2 B8) | A16 | z4 E4 G8 | %23
w: * ni- am|a dex-|tris est mi-|hi, a|dex- tris est|mi\- * * * *|hi,|a dex-|
 ^F4 F4 G8- | G8 D8 | z4 G8 F4 | E4 E4 D8 | z8 A8- | A4 G4 F4 F4 | E8 z8 | z4 c8 B4 | A4 A4 G8- | %32
w: tris est mi\-|* hi,|ne com-|mo- ve- ar,|ne|* com- mo- ve-|ar,|ne com-|mo- ve- ar,|
 G8 z4 F4- | F4 E4 D4 D4 | (C8 D8) | z4 c8 B4 | A4 A4 G4 E4- | E4 D4 (E6 ^F2 | %38
w: * ne|* com- mo- ve-|ar, *|ne com-|mo- ve- ar, ne|* com- mo\- *|
 G4) G4 C4 !courtesy!=F4- | F4 E4 D4 D4 | C16- | C16 |] %42
w: * ve- ar, ne|* com- mo- ve-|ar.||
V:4
 z8 C,8- | C,4 C,8 C,4 | F,8 D,8- | D,4 D,4 D,8 | G,8 (A,6 G,2 | F,4 E,4 (F,2 E,2 D,2 C,2 | %6
w: Be\-|* ne- di-|cam Do\-|* mi- num|qui tri\- *|* bu- it * * *|
 _B,,2 C,2 D,4) A,,4 C,4 | D,4 E,4 D,8 | G,,4 G,8 G,4 | F,8 E,8 |[M:4/2] G,6 G,2 D,8 | %11
w: * * * mi- hi|in- tel- le-|ctum, pro- vi-|de- bam|Do- mi- num|
 z4 A,,4 E,4 C,4- | C,4 C,4 A,,6 B,,2 | C,4) D,4 (E,4 D,2 C,2 | G,8 F,8 | C,12 C,4 | C,8 z4 A,,4 | %17
w: in con- spe\-|* ctu me\- *|* o sem\- * *|* per:|quo- ni-|am a|
 C,8 G,,4 G,,4 | D,8 A,,8 | z4 A,,4 C,8 | G,,4 G,,4 G,8 | D,8 z4 A,,4 | C,8 G,,4 G,,4 | D,8 C,8 | %24
w: dex- tris est|mi- hi,|a dex-|tris est mi-|hi, a|dex- tris est|mi- hi,|
 z4 G,8 F,4 | E,4 E,4 D,8 | z8 z4 A,4- | A,4 G,4 F,4 F,4 | E,8 z8 | z4 C,8 B,,4 | A,,4 A,,4 G,,8 | %31
w: ne com-|mo- ve- ar,|ne|* com- mo- ve-|ar,|ne com-|mo- ve- ar,|
 D,6 D,2 E,4 C,4 | G,,8 D,6 D,2 | B,,4 C,4 G,,8 | z4 G,8 F,4 | E,4 E,4 D,8- | D,8 z4 C,4- | %37
w: ne com- mo- ve-|ar, ne com-|mo- ve- ar,|ne com-|mo- ve- ar,|* ne|
 C,4 B,,4 A,,4 A,,4 | G,,8 F,,8 | G,,16 | A,,6 G,,2 F,,4) F,,4 | C,16 |] %42
w: * com- mo- ve-|ar, ne|com-|mo\- * * ve-|ar.|

